symbolic/16x16/places/bookmark-missing.svg

<svg xmlns="http://www.w3.org/2000/svg" width="16" height="16" version="1.1">
 <defs>
  <style id="current-color-scheme" type="text/css">
   .ColorScheme-Text { color:#323a41; } .ColorScheme-Highlight { color:#4285f4; } .ColorScheme-NeutralText { color:#ff9800; } .ColorScheme-PositiveText { color:#4caf50; } .ColorScheme-NegativeText { color:#f44336; }
  </style>
 </defs>
 <path style="fill:currentColor" class="ColorScheme-NegativeText" d="M 8.0000025,-1.0572069e-6 C 7.2788175,0.01003494 6.7648665,0.43177074 6.5234945,1.1319405 l 0.0078,-0.031334 -1.132771,3.9132593 -3.820173,0 c -0.0083,-1.301e-4 -0.01706,-1.301e-4 -0.02539,0 -0.45633,0.0144 -0.86826003,0.2203755 -1.15816103,0.5640123 -0.626968,0.7007156 -0.493432,1.8039654 0.302724,2.3265512 l 3.00379903,2.1385467 -1.165973,3.985296 c -0.0013,0.0039 -0.0027,0.0078 -0.0039,0.01175 -0.178148,0.569792 -0.01062,1.157308 0.437484,1.558867 0.0032,0.003 0.0084,0.0049 0.01172,0.0078 0.538485,0.466081 1.294158,0.524829 1.902274,0.139045 0.01157,-0.0073 0.024,-0.01366 0.03515,-0.02155 l 3.081922,-2.167881 3.0819175,2.167923 c 0.01115,0.0079 0.0236,0.01426 0.03516,0.02155 0.608116,0.385784 1.363788,0.327036 1.902273,-0.139045 0.0033,-0.0029 0.0085,-0.0048 0.01172,-0.0078 0.448108,-0.401569 0.615632,-0.989075 0.437484,-1.558867 -0.0012,-0.0039 -0.0026,-0.0078 -0.0039,-0.01175 L 12.298681,10.043018 15.302477,7.9044713 C 16.098632,7.3818856 16.232168,6.2786358 15.605201,5.5779202 15.3153,5.2342832 14.903368,5.0283094 14.44704,5.0139078 c -0.0083,-1.302e-4 -0.01709,-1.302e-4 -0.02539,0 l -3.820173,0 -1.1327702,-3.9132593 0.00781,0.031334 C 9.2351394,0.43177074 8.7211886,0.01003504 8.0000025,-1.0572069e-6 Z"/>
</svg>

<svg xmlns="http://www.w3.org/2000/svg" width="16" height="16"><defs><style id="current-color-scheme" type="text/css"></style></defs><path style="fill:currentColor;color:#f44336" d="M8 0c-.721.01-1.235.432-1.477 1.132l.008-.031L5.4 5.014H1.553c-.456.014-.868.22-1.158.564-.627.7-.494 1.804.303 2.326L3.7 10.043l-1.166 3.985-.004.012a1.47 1.47 0 0 0 .438 1.559l.012.008a1.58 1.58 0 0 0 1.902.139l.035-.022L8 13.556l3.082 2.168.035.022a1.58 1.58 0 0 0 1.902-.14c.004-.002.009-.004.012-.007a1.47 1.47 0 0 0 .438-1.559l-.004-.012-1.166-3.985 3.003-2.139c.797-.522.93-1.625.303-2.326a1.569 1.569 0 0 0-1.183-.564h-3.82L9.468 1.1l.008.031C9.235.432 8.72.01 8 0z"/></svg>
